X:1
T:4 Mélodies, Op. 51
T:Spleen.
T:Gabriel Fauré (1845-1924)
T:Poésie de Paul Verlaine.
T:4 Mélodies Op. 51 
T:3. Spleen.
T:À Madame Henri Cochin
T:OpenScore (CC0)
T:OpenScore (CC0)
T:OpenScore (CC0)
T:OpenScore (CC0)
C:Gabriel Fauré
Z:Poésie de Paul Verlaine
Z:OpenScore (CC0)
%%score 1 { ( 2 5 ) | ( 3 4 ) }
L:1/8
Q:1/4=76
M:3/4
K:G
V:1 treble nm="Chant"
V:2 treble nm="Piano"
V:5 treble 
V:3 treble 
V:4 treble 
V:1
"^Andante quasi allegretto" z6 | z6 | z6 | z2 z2 B2 | e3 e d d | c4 B B | G4 A A | B4 B2- | %8
w: |||Il|pleu- re dans mon|cœur comme il|pleut sur la|vil- le|
 B2 z2 B2 |!<(! d2 d2 ^c c!<)! | f4 d d | B3 ^c A2 | F6- | F2 z2 z2 | z2 z2!pp! G G | G4 G G | %16
w: _ quel-|le  est cet- te lan-|gueur qui pé-|\- nè- tre mon|cœur?|_|O bruit|doux de la|
 G3 G A B | ^c B B4- | B2 z2 z2 | z2 z2 =c c |!<(! c4 c c!<)! |!>(! c4!>)! c2 | z2 z2!<(! B B!<)! | %23
w: pluie Par terre et|sur les toits!|_|Pour un|cœur qui s'en-|\- nui- e|O le|
 c4!>(! c c!>)! | B4 B2 | z2 z2!<(! c2!<)! |!f! _e e d d c2 | _B B A2!>(! G G!>)! |!p! ^F6 | G6 | %30
w: chant de la|plui- e!|Il|pleu- re sans rai- son|Dans mon cœur qui s'é-|cœu-|\-re.|
 z6 |!mf! B4 z2 |!<(! A3 A ^c c!<)! |!f! !breath!f4 d2 |!>(! B3 ^c A G!>)! |!p! F6- | F2 z2 z2 | %37
w: |Quoi!|nul- le tra- hi-|son? mon|deuil est sans rai-|\- son.|_|
 z2 z2!p! G2 | F3 F G G | A4 B2 |"^cresc." z c c c d d | e4!f! B B | e4 d d | (c4 B2) | %44
w: C'est|bien la pi- re|pei- ne|de ne sa- voir pour-|quoi... Sans a-|\- mour et sans|hai- *|
!>(! ^A6!>)! | z2 z2!p! ^c2 | B3 =A G F | F4 E2 | z6 | z6 | z6 | z6 | z6 | z6 | z6 |] %55
w: ne|mon|cœur a tant de|pei- ne!||||||||
V:2
!p! z/ (.G.A.B.A.G.A/) | z/ (.G.A.B.A.G.A/) | z/ (.G.A.B.A.G.A/) | z/ (.G.A.B.A.G.A/) | %4
 z/ (.G.A.B.A.G.A/) | z/ (.G.A.B.A.G.A/) | z/ (.G.A.B.A.G.A/) | z/ (.F.G.A.G.F.G/) | %8
 z/ (.F.G.A.G.A.B/) | z/ (.A.B.^c.B.A.B/) | z/ (.A.B.^c.B.A.G/) | z/ (.F.E.F.G.E.D/) | %12
 z/ (.^C.D.E.D.C.D/) | z/ (.^C.D.E.D.E.F/) | %14
!pp! (3(DG[I:staff +1]G,[I:staff -1] (3^CG[I:staff +1]G,[I:staff -1] (3B,G[I:staff +1]G,) | %15
"^sim."[I:staff -1] (3(DG[I:staff +1]G,[I:staff -1] (3^CG[I:staff +1]G,[I:staff -1] (3B,G[I:staff +1]G,) | %16
[I:staff -1] (3(EG[I:staff +1]G,[I:staff -1] (3DG[I:staff +1]G,[I:staff -1] (3^CG[I:staff +1]G,) | %17
[I:staff -1] (^C/F/[I:staff +1]F,/[I:staff -1]F/ B,/F/[I:staff +1]F,/[I:staff -1]F/ ^D/F/[I:staff +1]F,/[I:staff -1]F/) | %18
 (^C/F/[I:staff +1]F,/[I:staff -1]F/ B,/F/[I:staff +1]F,/[I:staff -1]F/ F/B/B,/B/) | %19
 (3(G=c=C (3FcC (3EcC) |"^sim." (3(Ac^D (3GcD (3FcD) | (3(_BcE!>(! (3AcE (3Gc!>)!E) | %22
!p! z/ (.F.G.E!<(!.F.G.A/)!<)! | (3(_BcE (3Ac!>(!E (3GcE)!>)! |!p! z/ (.F.G.E!<(!.F.G.A/)!<)! | %25
 (3(_BcE (3Ac!<(!E (3GcE)!<)! |!f!"^sim." (3(A_e_E (3AdD (3AcC) | %27
 (3(_E_B_B, (3EA!>(!C (3EGB,)!>)! | (^F6 | G6) | z/ (.F.G.A.G.F.G/) | z/ (.F.G.A.G.A.B/) | %32
 z/!<(! (.A.B.^c.B.A.B/)!<)! | z/ (.A.B.^c.B.A.G/) | z/!>(! (.F.E.F.G.E.D/)!>)! | %35
!p! z/ (.^C.D.E.D.C.D/) | z/ (.^C.D.E.D.=C.D/) | z/ CB,C=DCD/ | z/ CB,C=DCD/ | z/ EDEFEF/ | %40
 z/ GFGAGA/ | z/ BGAB^c^d/ | z/ (.e.f.g.f.e.f/) | z/ (.e.f.g.f.e.f/) |"^dim." (e2 f2 e2 | %45
!p! f2 e4) | (B2 A2 G2 | F4 E2) | (E2 F2 E2 | F2 E4) | %50
 (3B,E[I:staff +1]E,[I:staff -1] (3z B,[I:staff +1]E,[I:staff -1] (3EB,[I:staff +1]E, | %51
[I:staff -1] (3z B,[I:staff +1]G,[I:staff -1] (3EB,[I:staff +1]G,[I:staff -1] (3z B,[I:staff +1]G, | %52
[I:staff -1] z6 | z6 | z6 |] %55
V:3
 z/ (.E.F.G.F.E.F/) | (.E.F.G.F.E.F) | (.E.F.G.F.E.F) | (.E.F.G.F.E.F) | (.E.F.G.F.E.F) | %5
 (.E.F.G.F.E.F) |[K:bass] EFGFEF | ^DEFEDE |[K:treble] (.^D.E.F.E.F.G) |!<(! (.F.G.A.G.F.G)!<)! | %10
[K:bass] FGAG!arpeggio!FE | D^CDECB, | ^A,B,^CB,=A,B, | ^A,B,^CB,CD | (B,,2 ^C,2 D,2) | %15
 (B,,2 ^C,2 D,2) | (^C,2 D,2 E,2) | (B,,,2 ^D,2 F,,2) | (B,,,2 =D,2 F,,2) | (E,2 F,2 G,2) | %20
!<(! (F,2 G,2 A,2)!<)! | (G,2 A,2 _B,2) | A,B,G,F,E,F, | (G,2 A,2 _B,2) | A,B,G,F,E,F, | %25
 (G,2 A,2 _B,2) | (C,2 D,2 _E,2) | (G,,2 A,,2 _B,,2) |!p! =B,,6 | [^F,,^C,]6 | ^DEFEDE | ^DEFEFG | %32
[K:treble] FGAGFG |[K:bass] FGAGFE | D^CDECB, | ^A,B,^CB,A,B, | ^A,B,^CB,=A,B, | A,G,A,B,A,B, | %38
 A,G,A,B,A,B, | CB,CDCD |[K:treble]"^cresc." EDEFEF | GEFGA!f!F | GABAGA | GABAGA | %44
[K:bass] (3[^A,^C]E z (3[A,C]E z (3[A,C]E z | (3=CG z (3CG z (3CG z | [E,,B,,]6- | %47
 (3z B,G, (3z B,G, (3z B,G, | (3[^A,,^C,]E, z (3[A,,C,]E, z (3[A,,C,]E, z | %49
 (3=C,G, z (3C,G, z (3C,G, z | [E,,B,,]2 [A,,A,]2 [G,,G,]2 | [F,,F,]2 [E,,E,]4 | %52
 (3z B,G, (3EB,G, (3z B,G, | (3EB,G, (3z B,G, (3EB,G, | [G,B,E]6 |] %55
V:4
 x6 | z2 z2 B,2 | E4 B,2 | E4 B,2 | E4 D2 | C4 B,2 |[K:bass] G,4 A,2 | B,4 F,2 | %8
[K:treble] B,4 B,2 | =D4 A,2 |[K:bass]{/D,} D,4 E,2 | F,4 ^C,2 |{/F,,} F,,4 ^C,2 | F,6 | E,,6 | %15
 E,,6 | E,,6 | x6 | x6 | A,,6 | B,,6 | C,6 | ^D,6 | C,6 | ^D,6 | C,6 | =F,,6 | x6 | x6 | x6 | %30
 B,4 F,2 | B,4 B,2 |[K:treble] =D4 A,2 |[K:bass]{/D,} D,4 E,2 | F,4 ^C,2 |{/F,,} F,,4 ^C,2 | %36
 F,4 E,2 | ^D,4 E,2 | ^D,4 E,2 | F,4 G,2 |[K:treble] A,4 B,2 | C4 B,2 | (E4 D2 | C4 B,2) | %44
[K:bass] x6 | x6 | x6 | [E,,B,,]6 | x6 | (3z ^A,E, (3z A,E, (3z A,E, | x6 | x6 | (B,,2 A,,2 G,,2 | %53
 F,,2 E,,4) | [E,,B,,]6 |] %55
V:5
 x6 | x6 | x6 | x6 | x6 | x6 | x6 | x6 | x6 | x6 | x6 | x6 | x6 | x6 | D2 ^C2 B,2 | D2 ^C2 B,2 | %16
 E2 D2 ^C2 | ^C2 B,2 ^D2 | ^C2 B,2 F2 | G2 F2 E2 | A2 G2 F2 | _B2 A2 G2 | =B6 | _B2 A2 G2 | =B6 | %25
 _B2 A2 G2 | x6 | x6 | %28
 ^D/[I:staff +1]A,/[I:staff -1]^C/[I:staff +1]A,/[I:staff -1] D/[I:staff +1]A,/[I:staff -1]E/[I:staff +1]A,/[I:staff -1] C/[I:staff +1]A,/[I:staff -1]D/[I:staff +1]A,/ | %29
[I:staff -1] E/[I:staff +1]^A,/[I:staff -1]^D/[I:staff +1]A,/[I:staff -1] E/[I:staff +1]A,/[I:staff -1]F/[I:staff +1]A,/[I:staff -1] D/[I:staff +1]A,/[I:staff -1]E/[I:staff +1]A,/ | %30
 x6 | x6 | x6 | x6 | x6 | x6 | x6 |[I:staff -1] (F4 G2 | F4 G2 | A4 B2 | c4 d2 | e4) z2 | x6 | x6 | %44
 (3z ^cF (3z cF (3z cF | (3z ^AE (3z AE (3z AE | (3BEB, (3=AEB, (3G[I:staff +1]B,G, | x6 | %48
[I:staff -1] (3z ^C[I:staff +1]F,[I:staff -1] (3z C[I:staff +1]F,[I:staff -1] (3z C[I:staff +1]F, | %49
 x6 |[I:staff -1] B,2 x4 | x6 | x6 | x6 | x6 |] %55

